assets/images/icon-linkedin.svg

<svg clip-rule="evenodd" fill-rule="evenodd" stroke-linejoin="round" stroke-miterlimit="2" viewBox="0 0 65 65" xmlns="http://www.w3.org/2000/svg"><path d="m17.957 46.587c0 .028.023.05.05.05h6.347c.028 0 .05-.022.05-.05v-19.095c0-.028-.022-.05-.05-.05h-6.347c-.027 0-.05.022-.05.05zm16.307-16.556v-2.539c0-.028-.022-.05-.05-.05h-6.35c-.013 0-.026.006-.036.015-.009.01-.014.024-.014.037.085 1.791 0 19.092 0 19.092 0 .013.006.026.015.035.009.01.022.015.035.015h6.349c.028 0 .05-.022.05-.05v-10.664c0-.566.042-1.125.208-1.529.453-1.126 1.48-2.29 3.209-2.29.905 0 1.592.274 2.09.766.753.743 1.076 1.978 1.076 3.501v10.217c0 .028.023.05.05.05h6.348c.028 0 .05-.022.05-.05v-11.02c-.012-2.912-.799-5.049-2.1-6.46-1.315-1.426-3.154-2.114-5.258-2.114-3.279 0-4.805 1.74-5.672 3.038zm-13.125-5.095h.068c2.231-.012 3.615-1.498 3.615-3.35v-.001c-.042-1.893-1.385-3.337-3.574-3.348h-.026c-2.203 0-3.642 1.449-3.642 3.349 0 1.86 1.398 3.35 3.559 3.35z" fill-rule="nonzero" transform="matrix(2.19176 0 0 2.19176 -38.6572 -38.6572)"/></svg>

<?xml version="1.0" encoding="UTF-8" standalone="no"?>
<!DOCTYPE svg PUBLIC "-//W3C//DTD SVG 1.1//EN" "http://www.w3.org/Graphics/SVG/1.1/DTD/svg11.dtd">
<svg width="100%" height="100%" viewBox="0 0 65 65" version="1.1" xmlns="http://www.w3.org/2000/svg" xmlns:xlink="http://www.w3.org/1999/xlink" xml:space="preserve" xmlns:serif="http://www.serif.com/" style="fill-rule:evenodd;clip-rule:evenodd;stroke-linejoin:round;stroke-miterlimit:2;">
    <g transform="matrix(2.19176,0,0,2.19176,-38.6572,-38.6572)">
        <path d="M17.957,46.587C17.957,46.615 17.98,46.637 18.007,46.637L24.354,46.637C24.382,46.637 24.404,46.615 24.404,46.587L24.404,27.492C24.404,27.464 24.382,27.442 24.354,27.442L18.007,27.442C17.98,27.442 17.957,27.464 17.957,27.492L17.957,46.587ZM34.264,30.031L34.264,27.492C34.264,27.464 34.242,27.442 34.214,27.442L27.864,27.442C27.851,27.442 27.838,27.448 27.828,27.457C27.819,27.467 27.814,27.481 27.814,27.494C27.899,29.285 27.814,46.586 27.814,46.586C27.814,46.599 27.82,46.612 27.829,46.621C27.838,46.631 27.851,46.636 27.864,46.636L34.213,46.636C34.241,46.636 34.263,46.614 34.263,46.586L34.263,35.922C34.263,35.356 34.305,34.797 34.471,34.393C34.924,33.267 35.951,32.103 37.68,32.103C38.585,32.103 39.272,32.377 39.77,32.869C40.523,33.612 40.846,34.847 40.846,36.37L40.846,46.587C40.846,46.615 40.869,46.637 40.896,46.637L47.244,46.637C47.272,46.637 47.294,46.615 47.294,46.587L47.294,35.567C47.282,32.655 46.495,30.518 45.194,29.107C43.879,27.681 42.04,26.993 39.936,26.993C36.657,26.993 35.131,28.733 34.264,30.031ZM21.139,24.936L21.207,24.936C23.438,24.924 24.822,23.438 24.822,21.586L24.822,21.585C24.78,19.692 23.437,18.248 21.248,18.237L21.222,18.237C19.019,18.237 17.58,19.686 17.58,21.586C17.58,23.446 18.978,24.936 21.139,24.936Z" style="fill-rule:nonzero;"/>
    </g>
</svg>
